src/assets/icons/Github.svg

<svg width="24" height="24" viewBox="0 0 24 24" fill="none" xmlns="http://www.w3.org/2000/svg">
<path d="M12 0C13.1016 0 14.1641 0.144144 15.1875 0.432432C16.2109 0.720721 17.1641 1.13714 18.0469 1.68168C18.9297 2.22623 19.7383 2.86687 20.4727 3.6036C21.207 4.34034 21.8359 5.16917 22.3594 6.09009C22.8828 7.01101 23.2852 7.99199 23.5664 9.03303C23.8477 10.0741 23.9922 11.1632 24 12.3003C24 13.6216 23.8047 14.8949 23.4141 16.1201C23.0234 17.3453 22.4648 18.4705 21.7383 19.4955C21.0117 20.5205 20.1484 21.4174 19.1484 22.1862C18.1484 22.955 17.0313 23.5516 15.7969 23.976C15.7734 23.984 15.7383 23.988 15.6914 23.988C15.6445 23.988 15.6094 23.992 15.5859 24C15.3984 24 15.25 23.9439 15.1406 23.8318C15.0313 23.7197 14.9766 23.5716 14.9766 23.3874V21.7057C14.9766 21.1532 14.9805 20.5886 14.9883 20.012C14.9883 19.6036 14.9297 19.1912 14.8125 18.7748C14.6953 18.3584 14.4844 18.01 14.1797 17.7297C15.0859 17.6256 15.8789 17.4374 16.5586 17.1652C17.2383 16.8929 17.8086 16.5085 18.2695 16.012C18.7305 15.5155 19.0742 14.9149 19.3008 14.2102C19.5273 13.5055 19.6445 12.6567 19.6523 11.6637C19.6523 11.039 19.5508 10.4505 19.3477 9.8979C19.1445 9.34535 18.8359 8.83283 18.4219 8.36036C18.5078 8.13614 18.5703 7.9039 18.6094 7.66366C18.6484 7.42342 18.668 7.18318 18.668 6.94294C18.668 6.63063 18.6367 6.32232 18.5742 6.01802C18.5117 5.71371 18.4219 5.40941 18.3047 5.10511C18.2656 5.08909 18.2227 5.08108 18.1758 5.08108C18.1289 5.08108 18.0859 5.08108 18.0469 5.08108C17.7969 5.08108 17.5352 5.12112 17.2617 5.2012C16.9883 5.28128 16.7187 5.38539 16.4531 5.51351C16.1875 5.64164 15.9258 5.78178 15.668 5.93393C15.4102 6.08609 15.1875 6.23023 15 6.36637C14.0234 6.08609 13.0234 5.94595 12 5.94595C10.9766 5.94595 9.97656 6.08609 9 6.36637C8.80469 6.23023 8.58203 6.08609 8.33203 5.93393C8.08203 5.78178 7.82422 5.64565 7.55859 5.52553C7.29297 5.40541 7.01953 5.3013 6.73828 5.21321C6.45703 5.12513 6.19531 5.08108 5.95312 5.08108H5.82422C5.77734 5.08108 5.73437 5.08909 5.69531 5.10511C5.58594 5.4014 5.5 5.7017 5.4375 6.00601C5.375 6.31031 5.33984 6.62262 5.33203 6.94294C5.33203 7.18318 5.35156 7.42342 5.39062 7.66366C5.42969 7.9039 5.49219 8.13614 5.57812 8.36036C5.16406 8.82483 4.85547 9.33333 4.65234 9.88589C4.44922 10.4384 4.34766 11.031 4.34766 11.6637C4.34766 12.6406 4.46094 13.4855 4.6875 14.1982C4.91406 14.9109 5.25781 15.5115 5.71875 16C6.17969 16.4885 6.75 16.8769 7.42969 17.1652C8.10938 17.4535 8.90234 17.6456 9.80859 17.7417C9.58203 17.95 9.41016 18.1982 9.29297 18.4865C9.17578 18.7748 9.09375 19.0751 9.04688 19.3874C8.83594 19.4915 8.61328 19.5716 8.37891 19.6276C8.14453 19.6837 7.91016 19.7117 7.67578 19.7117C7.17578 19.7117 6.76172 19.5916 6.43359 19.3514C6.10547 19.1111 5.8125 18.7828 5.55469 18.3664C5.46094 18.2142 5.34766 18.0621 5.21484 17.9099C5.08203 17.7578 4.9375 17.6216 4.78125 17.5015C4.625 17.3814 4.45703 17.2853 4.27734 17.2132C4.09766 17.1411 3.91016 17.1011 3.71484 17.0931H3.57422C3.51172 17.0931 3.45312 17.1051 3.39844 17.1291C3.34375 17.1532 3.28906 17.1772 3.23438 17.2012C3.17969 17.2252 3.15625 17.2653 3.16406 17.3213C3.16406 17.4174 3.21875 17.5095 3.32812 17.5976C3.4375 17.6857 3.52734 17.7578 3.59766 17.8138L3.63281 17.8378C3.80469 17.974 3.95312 18.1021 4.07812 18.2222C4.20313 18.3423 4.32031 18.4745 4.42969 18.6186C4.53906 18.7628 4.62891 18.9149 4.69922 19.0751C4.76953 19.2352 4.85938 19.4234 4.96875 19.6396C5.23437 20.2643 5.60547 20.7167 6.08203 20.997C6.55859 21.2773 7.13281 21.4214 7.80469 21.4294C8.00781 21.4294 8.21094 21.4174 8.41406 21.3934C8.61719 21.3694 8.82031 21.3333 9.02344 21.2853V23.3754C9.02344 23.5676 8.96875 23.7197 8.85938 23.8318C8.75 23.9439 8.59766 24 8.40234 24H8.30859C8.26953 24 8.23438 23.992 8.20312 23.976C6.97656 23.5676 5.85938 22.979 4.85156 22.2102C3.84375 21.4414 2.98047 20.5405 2.26172 19.5075C1.54297 18.4745 0.988281 17.3453 0.597656 16.1201C0.207031 14.8949 0.0078125 13.6216 0 12.3003C0 11.1712 0.140625 10.0821 0.421875 9.03303C0.703125 7.98398 1.10938 7.00701 1.64062 6.1021C2.17187 5.1972 2.79688 4.36837 3.51562 3.61562C4.23437 2.86286 5.04297 2.21822 5.94141 1.68168C6.83984 1.14515 7.79688 0.732733 8.8125 0.444444C9.82812 0.156156 10.8906 0.00800801 12 0Z" fill="#121212"/>
</svg>

<svg xmlns="http://www.w3.org/2000/svg" width="24" height="24" fill="none"><path fill="#121212" d="M12 0a11.7 11.7 0 0 1 3.188.432 11.22 11.22 0 0 1 2.859 1.25 13.196 13.196 0 0 1 2.426 1.922 11.68 11.68 0 0 1 1.886 2.486c.524.921.926 1.902 1.207 2.943.282 1.041.426 2.13.434 3.267a12.5 12.5 0 0 1-.586 3.82c-.39 1.225-.95 2.35-1.676 3.375a12.48 12.48 0 0 1-2.59 2.691c-1 .769-2.117 1.366-3.351 1.79a.348.348 0 0 1-.106.012.348.348 0 0 0-.105.012.594.594 0 0 1-.445-.168.61.61 0 0 1-.164-.445v-1.681c0-.553.003-1.117.011-1.694 0-.408-.058-.82-.175-1.237a2.198 2.198 0 0 0-.633-1.045c.906-.104 1.699-.293 2.379-.565a4.66 4.66 0 0 0 1.71-1.153 4.737 4.737 0 0 0 1.032-1.802c.226-.705.344-1.553.351-2.546 0-.625-.101-1.213-.304-1.766a4.879 4.879 0 0 0-.926-1.538c.086-.224.148-.456.187-.696a4.491 4.491 0 0 0-.035-1.646 5.765 5.765 0 0 0-.27-.913.337.337 0 0 0-.128-.024h-.13c-.25 0-.51.04-.784.12-.274.08-.543.184-.809.313a10.64 10.64 0 0 0-.785.42c-.258.152-.48.296-.668.432-.977-.28-1.977-.42-3-.42s-2.023.14-3 .42c-.195-.136-.418-.28-.668-.432a7.165 7.165 0 0 0-1.594-.72 2.638 2.638 0 0 0-.785-.133h-.129a.337.337 0 0 0-.129.024c-.11.296-.195.597-.258.901a5.289 5.289 0 0 0-.105.937c0 .24.02.48.059.72.039.24.101.473.187.697a4.738 4.738 0 0 0-.926 1.526 5.112 5.112 0 0 0-.304 1.778c0 .977.113 1.822.34 2.534.226.713.57 1.313 1.03 1.802a5 5 0 0 0 1.712 1.165c.68.288 1.472.48 2.379.577a2.045 2.045 0 0 0-.516.744c-.117.289-.2.59-.246.901a3.168 3.168 0 0 1-1.371.325c-.5 0-.914-.12-1.242-.36a3.447 3.447 0 0 1-.88-.986 3.448 3.448 0 0 0-.34-.456 3.012 3.012 0 0 0-.433-.409 2.118 2.118 0 0 0-.504-.288 1.684 1.684 0 0 0-.562-.12h-.14a.433.433 0 0 0-.177.036l-.164.072c-.054.024-.078.064-.07.12 0 .096.055.188.164.277l.27.216.035.024c.172.136.32.264.445.384s.242.252.352.397c.11.144.199.296.27.456.07.16.16.348.269.565.265.624.636 1.077 1.113 1.357s1.05.424 1.723.432a5.189 5.189 0 0 0 1.218-.144v2.09a.625.625 0 0 1-.164.457c-.109.112-.261.168-.457.168H8.31a.228.228 0 0 1-.106-.024 11.446 11.446 0 0 1-3.351-1.766 12.003 12.003 0 0 1-2.59-2.703A12.75 12.75 0 0 1 0 12.3c0-1.129.14-2.218.422-3.267a11.732 11.732 0 0 1 1.219-2.93 13.442 13.442 0 0 1 1.875-2.487A11.466 11.466 0 0 1 5.94 1.682 11.927 11.927 0 0 1 8.813.444 11.936 11.936 0 0 1 12 0Z"/></svg>
